src/icons/logos/sitemap.svg

<svg width="172" height="220" viewBox="0 0 172 220" fill="none" xmlns="http://www.w3.org/2000/svg">
<path d="M64 35V80H79V102.5H34C25.675 102.5 19 109.175 19 117.5V140H4V185H49V140H34V117.5H79V140H64V185H109V140H94V117.5H139V140H124V185H169V140H154V117.5C154 109.175 147.325 102.5 139 102.5H94V80H109V35H64Z" fill="black"/>
</svg>

<svg xmlns="http://www.w3.org/2000/svg" viewBox="0 0 172 220">
  <path fill="#fff" d="M64 35v45h15v23H34c-8 0-15 6-15 15v22H4v45h45v-45H34v-22h45v22H64v45h45v-45H94v-22h45v22h-15v45h45v-45h-15v-22c0-9-7-15-15-15H94V80h15V35H64Z"/>
</svg>
